app/img/home/program2.svg

<?xml version="1.0" encoding="UTF-8" standalone="no"?>
<svg
   xmlns:dc="http://purl.org/dc/elements/1.1/"
   xmlns:cc="http://creativecommons.org/ns#"
   xmlns:rdf="http://www.w3.org/1999/02/22-rdf-syntax-ns#"
   xmlns:svg="http://www.w3.org/2000/svg"
   xmlns="http://www.w3.org/2000/svg"
   xmlns:sodipodi="http://sodipodi.sourceforge.net/DTD/sodipodi-0.dtd"
   xmlns:inkscape="http://www.inkscape.org/namespaces/inkscape"
   version="1.1"
   id="Layer_1"
   x="0px"
   y="0px"
   width="96px"
   height="100px"
   viewBox="0 0 96 100"
   enable-background="new 0 0 96 100"
   xml:space="preserve"
   inkscape:version="0.48.4 r9939"
   sodipodi:docname="program2.svg"><metadata
     id="metadata35"><rdf:RDF><cc:Work
         rdf:about=""><dc:format>image/svg+xml</dc:format><dc:type
           rdf:resource="http://purl.org/dc/dcmitype/StillImage" /></cc:Work></rdf:RDF></metadata><defs
     id="defs33" /><sodipodi:namedview
     pagecolor="#ffffff"
     bordercolor="#666666"
     borderopacity="1"
     objecttolerance="10"
     gridtolerance="10"
     guidetolerance="10"
     inkscape:pageopacity="0"
     inkscape:pageshadow="2"
     inkscape:window-width="640"
     inkscape:window-height="480"
     id="namedview31"
     showgrid="false"
     inkscape:zoom="2.36"
     inkscape:cx="48"
     inkscape:cy="50"
     inkscape:window-x="0"
     inkscape:window-y="28"
     inkscape:window-maximized="0"
     inkscape:current-layer="Layer_1" /><g
     id="g3"
     transform="matrix(1,0,0,0.92365399,0,-0.01679612)"><path
       d="M 81.902,11.084 H 18.089 c -3.478,0 -6.288,2.936 -6.288,6.561 V 93.12 c 0,3.625 2.811,6.562 6.288,6.562 h 63.813 c 3.477,0 6.29,-2.938 6.29,-6.562 V 17.645 c 0,-3.624 -2.813,-6.561 -6.29,-6.561 z m 0.755,79.009 c 0,0 0.173,1.517 -0.537,2.303 -0.721,0.8 -2.055,0.691 -2.055,0.691 l -60.709,0.032 c 0,0 -0.856,-0.013 -1.509,-0.762 -0.564,-0.646 -0.557,-2.015 -0.557,-2.015 l 0.022,-70.429 c 0,0 0,-1.043 0.611,-1.6 0.659,-0.602 1.612,-0.653 1.612,-0.653 h 60.721 c 0,0 1.151,-0.032 1.689,0.519 0.732,0.749 0.71,1.536 0.71,1.536 v 70.378 z"
       id="path5"
       inkscape:connector-curvature="0" /><g
       id="g7"><path
         d="m 55.722,2.298 c 0,1.392 -1.254,2.519 -2.799,2.519 h -5.596 c -1.546,0 -2.799,-1.127 -2.799,-2.519 l 0,0 c 0,-1.39 1.253,-2.518 2.799,-2.518 h 5.596 c 1.545,0 2.799,1.128 2.799,2.518 l 0,0 z"
         id="path9"
         inkscape:connector-curvature="0" /><path
         d="M 62.113,7.748 C 62.113,6.29 61.979,3.86 60.789,3.86 H 39.243 c -1.113,0 -1.38,2.44 -1.362,3.883 l 24.232,0.005 z"
         id="path11"
         inkscape:connector-curvature="0" /><path
         d="m 67.307,12.798 c 0,-2.084 -0.191,-5.556 -1.891,-5.556 h -30.78 c -1.592,0 -1.972,3.488 -1.947,5.549 l 34.618,0.007 z"
         id="path13"
         inkscape:connector-curvature="0" /></g><rect
       x="37.191002"
       y="32.048"
       width="35.438999"
       height="3.151"
       id="rect15" /><path
       d="m 26.044,43.288 v 7.874 h 7.876 v -7.874 h -7.876 z m 1.18,6.682 v -5.51 h 5.514 v 5.51 h -5.514 z"
       id="path17"
       inkscape:connector-curvature="0" /><rect
       x="37.191002"
       y="47.012001"
       width="35.438999"
       height="3.1500001"
       id="rect19" /><rect
       x="37.191002"
       y="61.359001"
       width="35.438999"
       height="3.1500001"
       id="rect21" /><rect
       x="37.191002"
       y="75.364998"
       width="35.438999"
       height="3.1489999"
       id="rect23" /><path
       d="m 26.044,28.324 v 7.875 h 7.876 v -7.875 h -7.876 z m 1.18,6.682 v -5.509 h 5.514 v 5.509 h -5.514 z"
       id="path25"
       inkscape:connector-curvature="0" /><path
       d="m 26.044,57.636 v 7.874 h 7.876 v -7.874 h -7.876 z m 1.18,6.682 v -5.511 h 5.514 v 5.511 h -5.514 z"
       id="path27"
       inkscape:connector-curvature="0" /><path
       d="m 26.044,71.641 v 7.874 h 7.876 v -7.874 h -7.876 z m 1.18,6.681 v -5.51 h 5.514 v 5.51 h -5.514 z"
       id="path29"
       inkscape:connector-curvature="0" /></g></svg>

<svg xmlns="http://www.w3.org/2000/svg" xmlns:xlink="http://www.w3.org/1999/xlink" version="1.1" id="Layer_1" x="0px" y="0px" width="96px" height="100px" viewBox="0 0 96 100" enable-background="new 0 0 96 100" xml:space="preserve">
<g>
	<path d="M81.902,11.084H18.089c-3.478,0-6.288,2.936-6.288,6.561V93.12c0,3.625,2.811,6.562,6.288,6.562h63.813   c3.477,0,6.29-2.938,6.29-6.562V17.645C88.192,14.021,85.379,11.084,81.902,11.084z M82.657,90.093c0,0,0.173,1.517-0.537,2.303   c-0.721,0.8-2.055,0.691-2.055,0.691l-60.709,0.032c0,0-0.856-0.013-1.509-0.762c-0.564-0.646-0.557-2.015-0.557-2.015   l0.022-70.429c0,0,0-1.043,0.611-1.6c0.659-0.602,1.612-0.653,1.612-0.653h60.721c0,0,1.151-0.032,1.689,0.519   c0.732,0.749,0.71,1.536,0.71,1.536V90.093z"/>
	<g>
		<path d="M55.722,2.298c0,1.392-1.254,2.519-2.799,2.519h-5.596c-1.546,0-2.799-1.127-2.799-2.519l0,0    c0-1.39,1.253-2.518,2.799-2.518h5.596C54.468-0.22,55.722,0.908,55.722,2.298L55.722,2.298z"/>
		<path d="M62.113,7.748c0-1.458-0.134-3.888-1.324-3.888H39.243c-1.113,0-1.38,2.44-1.362,3.883L62.113,7.748z"/>
		<path d="M67.307,12.798c0-2.084-0.191-5.556-1.891-5.556h-30.78c-1.592,0-1.972,3.488-1.947,5.549L67.307,12.798z"/>
	</g>
	<rect x="37.191" y="32.048" width="35.439" height="3.151"/>
	<path d="M26.044,43.288v7.874h7.876v-7.874H26.044z M27.224,49.97v-5.51h5.514v5.51H27.224z"/>
	<rect x="37.191" y="47.012" width="35.439" height="3.15"/>
	<rect x="37.191" y="61.359" width="35.439" height="3.15"/>
	<rect x="37.191" y="75.365" width="35.439" height="3.149"/>
	<path d="M26.044,28.324v7.875h7.876v-7.875H26.044z M27.224,35.006v-5.509h5.514v5.509H27.224z"/>
	<path d="M26.044,57.636v7.874h7.876v-7.874H26.044z M27.224,64.318v-5.511h5.514v5.511H27.224z"/>
	<path d="M26.044,71.641v7.874h7.876v-7.874H26.044z M27.224,78.322v-5.51h5.514v5.51H27.224z"/>
</g>
</svg>
